src/icons/main-search.svg

<?xml version="1.0" encoding="UTF-8"?>
<svg width="14px" height="14px" viewBox="0 0 14 14" version="1.1" xmlns="http://www.w3.org/2000/svg" xmlns:xlink="http://www.w3.org/1999/xlink">
    <!-- Generator: Sketch 59 (86127) - https://sketch.com -->
    <title>HDL/Icon/Standard/search</title>
    <desc>Created with Sketch.</desc>
    <g id="Colors" stroke="none" stroke-width="1" fill="none" fill-rule="evenodd">
        <g id="Main-Icons" transform="translate(-122.000000, -1158.000000)" fill="#4D5969">
            <g id="Search" transform="translate(101.000000, 1140.000000)">
                <g id="HDL/Icon/Standard/search" transform="translate(21.000000, 18.000000)">
                    <path d="M13.692,12.208 L10.234,8.75 C10.843,7.847 11.2,6.769 11.2,5.6 C11.2,2.506 8.694,0 5.6,0 C2.506,0 0,2.506 0,5.6 C0,8.694 2.506,11.2 5.6,11.2 C6.769,11.2 7.847,10.843 8.75,10.234 L12.208,13.692 C12.397,13.881 12.663,14 12.95,14 C13.531,14 14,13.531 14,12.95 C14,12.663 13.881,12.397 13.692,12.208 Z M5.6,9.8 C3.283,9.8 1.4,7.917 1.4,5.6 C1.4,3.283 3.283,1.4 5.6,1.4 C7.917,1.4 9.8,3.283 9.8,5.6 C9.8,7.917 7.917,9.8 5.6,9.8 Z" id="Shape"></path>
                </g>
            </g>
        </g>
    </g>
</svg>

<?xml version="1.0" encoding="utf-8"?>
<!-- Generator: Adobe Illustrator 20.1.0, SVG Export Plug-In . SVG Version: 6.00 Build 0)  -->
<svg version="1.1" id="Layer_1" xmlns="http://www.w3.org/2000/svg" xmlns:xlink="http://www.w3.org/1999/xlink" x="0px" y="0px"
	 viewBox="0 0 14 14" style="enable-background:new 0 0 14 14;" xml:space="preserve">
<style type="text/css">
	.st0{fill:#4D5969;}
</style>
<title>HDL/Icon/Standard/search</title>
<desc>Created with Sketch.</desc>
<g id="Colors">
	<g id="Main-Icons" transform="translate(-122.000000, -1158.000000)">
		<g id="Search" transform="translate(101.000000, 1140.000000)">
			<g id="HDL_x2F_Icon_x2F_Standard_x2F_search" transform="translate(21.000000, 18.000000)">
				<path id="Shape" class="st0" d="M13.7,12.2l-3.5-3.5c0.6-0.9,1-2,1-3.2C11.2,2.5,8.7,0,5.6,0S0,2.5,0,5.6s2.5,5.6,5.6,5.6
					c1.2,0,2.2-0.4,3.2-1l3.5,3.5c0.2,0.2,0.5,0.3,0.7,0.3c0.6,0,1.1-0.5,1.1-1.1C14,12.7,13.9,12.4,13.7,12.2z M5.6,9.8
					c-2.3,0-4.2-1.9-4.2-4.2s1.9-4.2,4.2-4.2s4.2,1.9,4.2,4.2S7.9,9.8,5.6,9.8z"/>
			</g>
		</g>
	</g>
</g>
</svg>
